assets/icons/logo.svg

<svg width="39" height="44" viewBox="0 0 39 44" fill="none" xmlns="http://www.w3.org/2000/svg">
<g clip-path="url(#clip0_3089_4489)">
<path d="M0 3.31807V35.341C0 36.6 0.755814 37.7057 1.85094 38.0514L18.8005 43.3924C19.2572 43.5359 19.7412 43.5359 20.1979 43.3924L37.1474 38.0514C38.2426 37.7057 38.9984 36.6 38.9984 35.341V3.31807C38.9984 1.76226 37.8566 0.5 36.4495 0.5H2.54886C1.14176 0.5 0 1.76226 0 3.31807Z" fill="#FD7E14"/>
<path d="M32.003 32.2132L7 25.4192V14.1616C7 9.65559 10.615 6.97288 15.0583 8.17969C16.6471 8.61186 18.1909 9.50718 19.5031 10.745C20.8153 10.2215 22.3591 10.1644 23.9479 10.5949C28.3911 11.8018 32.0062 16.4496 32.0062 20.9556V32.2132H32.003ZM9.58263 23.5013L29.4187 28.8912V20.2543C29.4187 17.1933 26.9631 14.036 23.9447 13.2157C22.6228 12.8569 21.346 12.9955 20.349 13.6054L19.4999 14.1257L18.6508 13.1439C17.6538 11.9909 16.3769 11.1592 15.055 10.7988C12.0366 9.97849 9.58102 11.8018 9.58102 14.8628V23.4997L9.58263 23.5013Z" fill="white"/>
</g>
<defs>
<clipPath id="clip0_3089_4489">
<rect width="39" height="43" fill="white" transform="translate(0 0.5)"/>
</clipPath>
</defs>
</svg>

<svg width="39" height="44" viewBox="0 0 39 44" fill="none" xmlns="http://www.w3.org/2000/svg">
  <g clip-path="url(#a)">
    <path d="M0 3.318v32.023c0 1.259.756 2.365 1.85 2.71l16.95 5.341c.457.144.941.144 1.398 0l16.95-5.34c1.095-.346 1.85-1.452 1.85-2.711V3.318C38.998 1.762 37.857.5 36.45.5H2.548C1.142.5 0 1.762 0 3.318" fill="#FD7E14"/>
    <path d="M32.003 32.213 7 25.42V14.162c0-4.506 3.615-7.19 8.058-5.982 1.59.432 3.133 1.327 4.445 2.565 1.312-.523 2.856-.58 4.445-.15 4.443 1.207 8.058 5.855 8.058 10.36v11.258zm-22.42-8.712 19.836 5.39v-8.637c0-3.06-2.456-6.218-5.474-7.038-1.322-.36-2.599-.22-3.596.39l-.85.52-.848-.982c-.997-1.153-2.274-1.985-3.596-2.345-3.018-.82-5.474 1.003-5.474 4.064V23.5z" fill="#fff"/>
  </g>
  <defs>
    <clipPath id="a">
      <path fill="#fff" d="M0 .5h39v43H0z"/>
    </clipPath>
  </defs>
</svg>
